svgs/regular/microchip.svg

<svg xmlns="http://www.w3.org/2000/svg" viewBox="0 0 512 512"><!--! Font Awesome Pro 6.6.0 by @fontawesome - https://fontawesome.com License - https://fontawesome.com/license (Commercial License) Copyright 2024 Fonticons, Inc. --><path d="M184 24c0-13.3-10.7-24-24-24s-24 10.7-24 24l0 40-8 0c-35.3 0-64 28.7-64 64l0 8-40 0c-13.3 0-24 10.7-24 24s10.7 24 24 24l40 0 0 48-40 0c-13.3 0-24 10.7-24 24s10.7 24 24 24l40 0 0 48-40 0c-13.3 0-24 10.7-24 24s10.7 24 24 24l40 0 0 8c0 35.3 28.7 64 64 64l8 0 0 40c0 13.3 10.7 24 24 24s24-10.7 24-24l0-40 48 0 0 40c0 13.3 10.7 24 24 24s24-10.7 24-24l0-40 48 0 0 40c0 13.3 10.7 24 24 24s24-10.7 24-24l0-40 8 0c35.3 0 64-28.7 64-64l0-8 40 0c13.3 0 24-10.7 24-24s-10.7-24-24-24l-40 0 0-48 40 0c13.3 0 24-10.7 24-24s-10.7-24-24-24l-40 0 0-48 40 0c13.3 0 24-10.7 24-24s-10.7-24-24-24l-40 0 0-8c0-35.3-28.7-64-64-64l-8 0 0-40c0-13.3-10.7-24-24-24s-24 10.7-24 24l0 40-48 0 0-40c0-13.3-10.7-24-24-24s-24 10.7-24 24l0 40-48 0 0-40zM400 128l0 256c0 8.8-7.2 16-16 16l-256 0c-8.8 0-16-7.2-16-16l0-256c0-8.8 7.2-16 16-16l256 0c8.8 0 16 7.2 16 16zM192 160c-17.7 0-32 14.3-32 32l0 128c0 17.7 14.3 32 32 32l128 0c17.7 0 32-14.3 32-32l0-128c0-17.7-14.3-32-32-32l-128 0zm16 48l96 0 0 96-96 0 0-96z"/></svg>

<svg xmlns="http://www.w3.org/2000/svg" viewBox="0 0 512 512"><!--! Font Awesome Pro 6.4.2 by @fontawesome - https://fontawesome.com License - https://fontawesome.com/license (Commercial License) Copyright 2023 Fonticons, Inc. --><path d="M184 24c0-13.3-10.7-24-24-24s-24 10.7-24 24V64h-8c-35.3 0-64 28.7-64 64v8H24c-13.3 0-24 10.7-24 24s10.7 24 24 24H64v48H24c-13.3 0-24 10.7-24 24s10.7 24 24 24H64v48H24c-13.3 0-24 10.7-24 24s10.7 24 24 24H64v8c0 35.3 28.7 64 64 64h8v40c0 13.3 10.7 24 24 24s24-10.7 24-24V448h48v40c0 13.3 10.7 24 24 24s24-10.7 24-24V448h48v40c0 13.3 10.7 24 24 24s24-10.7 24-24V448h8c35.3 0 64-28.7 64-64v-8h40c13.3 0 24-10.7 24-24s-10.7-24-24-24H448V280h40c13.3 0 24-10.7 24-24s-10.7-24-24-24H448V184h40c13.3 0 24-10.7 24-24s-10.7-24-24-24H448v-8c0-35.3-28.7-64-64-64h-8V24c0-13.3-10.7-24-24-24s-24 10.7-24 24V64H280V24c0-13.3-10.7-24-24-24s-24 10.7-24 24V64H184V24zM400 128V384c0 8.8-7.2 16-16 16H128c-8.8 0-16-7.2-16-16V128c0-8.8 7.2-16 16-16H384c8.8 0 16 7.2 16 16zM192 160c-17.7 0-32 14.3-32 32V320c0 17.7 14.3 32 32 32H320c17.7 0 32-14.3 32-32V192c0-17.7-14.3-32-32-32H192zm16 48h96v96H208V208z"/></svg>
